X: 3
T: Row Well Ye Mariners
O: Playford 1651
R: jig
M: 6/8
L: 1/8
B: Playford 1651
B: Peter Barnes "English Country Dance Tunes" v.2 2005 p.110
Z: 2012 John Chambers <jc:trillian.mit.edu>
K: G
|: A | "D"F2E F2G | "D"A3- A2B | "C"cdc "G"BAB | "D7"A2G "G"G2 :|
|: d | "D"ded A2B | "C"cdB "D"A2 :: G | "G"GAG F2G | "D7"AFD "G"G2 :|
|: z | "D"d3 A3   | "D"d3 A3 | "D7"d2e d2c | "(G)"B2A "G"G2 :|
